images/badge-solid-dark.svg

<svg height="88" viewBox="0 0 88 88" width="88" xmlns="http://www.w3.org/2000/svg"><path d="m575 150c-24.300529 0-44-19.699471-44-44s19.699471-44 44-44 44 19.699471 44 44-19.699471 44-44 44zm-9.04442-29.25h-5.888913c-2.061863 0-3.733334-1.645354-3.733334-3.675s1.671471-3.675 3.733334-3.675h16.37853l5.014484 7.318093 1.319188 1.833639c1.811245 2.212847 4.382673 3.448268 7.154464 3.448268 5.007382 0 9.066667-3.995859 9.066667-8.925s-4.059285-8.925-9.066667-8.925h-10.652915l-2.158336-3.15h12.811251c5.007382 0 9.066667-3.995859 9.066667-8.925 0-4.9291414-4.059285-8.925-9.066667-8.925h-5.43969c-.971046-1.8698799-2.947144-3.15-5.226976-3.15-3.240071 0-5.866667 2.5855556-5.866667 5.775s2.626596 5.775 5.866667 5.775c2.279832 0 4.25593-1.2801201 5.226976-3.15h5.43969c2.061863 0 3.733334 1.6453535 3.733334 3.675s-1.671471 3.675-3.733334 3.675h-16.408477l-4.766178-6.9560362c-1.040179-1.4962262-1.481703-2.1267346-1.596615-2.2745196-1.761891-2.2659033-4.191936-3.3694442-7.095396-3.3694442-5.007382 0-9.066667 3.9958586-9.066667 8.925 0 4.929141 4.059285 8.925 9.066667 8.925h10.622704l2.158434 3.15h-12.781138c-5.007382 0-9.066667 3.995859-9.066667 8.925s4.059285 8.925 9.066667 8.925h5.274744c.823673 2.330385 3.046151 4 5.658589 4 3.313708 0 6-2.686292 6-6s-2.686292-6-6-6c-2.116006 0-3.976175 1.095363-5.04442 2.75zm19.890589-3.017563-2.968525-4.332437h7.055689c2.061863 0 3.733334 1.645354 3.733334 3.675s-1.671471 3.675-3.733334 3.675c-1.144242 0-2.198515-.506517-2.905358-1.366795zm-21.49889-21.9880276 2.7447 4.0055906h-7.025312c-2.061863 0-3.733334-1.6453535-3.733334-3.675s1.671471-3.675 3.733334-3.675c1.292412 0 2.140962.3853467 2.860275 1.3104283.02072.0266471.581472.8274166 1.420337 2.0339811z" fill="#1e2347" transform="translate(-531 -62)"/></svg>

<?xml version="1.0" encoding="UTF-8"?>
<svg width="88px" height="88px" viewBox="0 0 88 88" version="1.1" xmlns="http://www.w3.org/2000/svg" xmlns:xlink="http://www.w3.org/1999/xlink">
    <!-- Generator: Sketch 52.6 (67491) - http://www.bohemiancoding.com/sketch -->
    <title>Fission Badge Solid</title>
    <desc>Created with Sketch.</desc>
    <g id="Page-1" stroke="none" stroke-width="1" fill="none" fill-rule="evenodd">
        <g id="Logos-Source" transform="translate(-595.000000, -1173.000000)" fill="#1E2347" fill-rule="nonzero">
            <g id="Badge" transform="translate(64.000000, 1111.000000)">
                <path d="M575,150 C550.699471,150 531,130.300529 531,106 C531,81.699471 550.699471,62 575,62 C599.300529,62 619,81.699471 619,106 C619,130.300529 599.300529,150 575,150 Z M565.95558,120.75 L560.066667,120.75 C558.004804,120.75 556.333333,119.104646 556.333333,117.075 C556.333333,115.045354 558.004804,113.4 560.066667,113.4 L576.445197,113.4 L581.459681,120.718093 L582.778869,122.551732 C584.590114,124.764579 587.161542,126 589.933333,126 C594.940715,126 599,122.004141 599,117.075 C599,112.145859 594.940715,108.15 589.933333,108.15 L579.280418,108.15 L577.122082,105 L589.933333,105 C594.940715,105 599,101.004141 599,96.075 C599,91.1458586 594.940715,87.15 589.933333,87.15 L584.493643,87.15 C583.522597,85.2801201 581.546499,84 579.266667,84 C576.026596,84 573.4,86.5855556 573.4,89.775 C573.4,92.9644444 576.026596,95.55 579.266667,95.55 C581.546499,95.55 583.522597,94.2698799 584.493643,92.4 L589.933333,92.4 C591.995196,92.4 593.666667,94.0453535 593.666667,96.075 C593.666667,98.1046465 591.995196,99.75 589.933333,99.75 L573.524856,99.75 L568.758678,92.7939638 C567.718499,91.2977376 567.276975,90.6672292 567.162063,90.5194442 C565.400172,88.2535409 562.970127,87.15 560.066667,87.15 C555.059285,87.15 551,91.1458586 551,96.075 C551,101.004141 555.059285,105 560.066667,105 L570.689371,105 L572.847805,108.15 L560.066667,108.15 C555.059285,108.15 551,112.145859 551,117.075 C551,122.004141 555.059285,126 560.066667,126 L565.341411,126 C566.165084,128.330385 568.387562,130 571,130 C574.313708,130 577,127.313708 577,124 C577,120.686292 574.313708,118 571,118 C568.883994,118 567.023825,119.095363 565.95558,120.75 Z M585.846169,117.732437 L582.877644,113.4 L589.933333,113.4 C591.995196,113.4 593.666667,115.045354 593.666667,117.075 C593.666667,119.104646 591.995196,120.75 589.933333,120.75 C588.789091,120.75 587.734818,120.243483 587.027975,119.383205 L585.846169,117.732437 Z M564.347279,95.7444094 L567.091979,99.75 L560.066667,99.75 C558.004804,99.75 556.333333,98.1046465 556.333333,96.075 C556.333333,94.0453535 558.004804,92.4 560.066667,92.4 C561.359079,92.4 562.207629,92.7853467 562.926942,93.7104283 C562.947662,93.7370754 563.508414,94.5378449 564.347279,95.7444094 Z" id="Fission-Badge-Solid"></path>
            </g>
        </g>
    </g>
</svg>
